X: 39510
T: Taureen Derby
R: polka
M: 2/4
K: Adorian
d|:eA BA|eA BA|G>A Bd|G>A Bd|
eA BA|eA BA|G>A Bd|1 BA Ad:|2 BA Af||
|:a2 gf|a2 gf|dB GA|Bc de|
a2 gf|a2 gf|dB gB|1 BA Af:|2 BA Ad||

